!!!ONB: MCCC : IJH0414_02 : Extracted Monophonic Melody
!!!COM: Haydn, Joseph
!!!OPR: String Quartet in B-flat major
!!!OMV: 2
!!!SCT: Hob.III:78 ; Op.76 No.4
!!!ODT: 1796///
**kern
*thru
*k[b-e-a-]
*E-:
*clefF
*M3/4
4e-
4d
4e-
=1
4f
2g
=2
4f
4e
4f
=3
4g
2a-
=4
4cc
4b
4cc
=5
4g
6..a-[
48a-]
32b-
32cc
32b-
32a-
32g
32f
=6
4.e-
8d
8a-
8d
=7
8e-
8g
8b-
8dd
8ee-
8gg
=8
2.bb-[
=9
4.bb-]
8bb
8ccc
8bb-
=10
4aa-
4gg
8ff
8fff
=11
4eee-
2ddd
=12
4eee-
4..d-
32c
32d-
=13
8c
8.cc
16b
16dd
16cc
16ff
16ee-
16cc
16a-
=14
16g
16a-
16a
16b-
4..A-
32G
32A-
=15
4G
2r
=16
4cc
4b
4cc
=17
4dd
4.ee-
8dd
=18
4cc
4.ff
8ee-
=19
4dd
2r
=20
4ff
4ee
4ff
=21
4ff#
4.gg
8ff
=22
24ee
24gg
24bb-
24ddd-
24bb-
24gg
24ee
24ff
24aa
24ccc
24aa
24ff
4r
=23
24dd
24ee-
24gg
24bb-
24gg
24ee-
24cc#
24dd
24ff
24aa
24ff
24dd
4r
=24
24b
24cc
24ee-
24gg
24ee-
24cc
24a
24b-
24dd
24ff
24dd
24b-
4bb-[
=25
24bb-]
24ff#
24gg
24dd
24ee-
24b
24cc
24f#
24g
24d
24e-
24B
24c
24e-
24g
24b
24cc
24gg
=26
24e
24f
24f#
24g
24a-
24a
24b-
24f
24f#
24g
24a-
24a
24b-
24dd
24ff
24aa
24bb-
24ddd
=27
4.fff
8fff
8fff
8fff
=28
2.fff
=29
4b-
2r
=30
2r
4b-
=31
4a
4b-
4cc
=32
24dd
24ff
24aa-
24ccc
24bb-
24aa-
24gg
24ff
24ee-
24dd
24cc
24b-
24a-
24g
24a-
24cc
24a-
24f
=33
4e-
8d
8r
24A
24B-
24B
24c
24d-
24d
=34
4e-
4d
4e-
=35
4f
2g-
=36
4a-
4g
4a-
=37
4b-
2cc-
=38
4cc-
4b-
4cc-
=39
4f
6..g-[
48g-]
32cc-
32b-
32a-
32g-
32f
32e-
=40
8.d
16f
4a-
8.g-
32f
32g-
=41
4f
2r
=42
2.r
=43
24cc
24dd-
24cc
24bb-
24gg
24ee
24cc
24aa-
24ee
24ff
24b
24cc
24g
24a-
24e
24f
24a-
24cc
=44
24b-
24cc
24b-
24aa-
24ff
24dd
24b-
24gg
24dd
24ee-
24a
24b-
24f#
24g
24d
24e-
24g
24b-
=45
2a-
4g
=46
24f
24g
24e
24f
24g
24a-
24b
24cc
24ee
24ff
24gg
24aa-
24bb
24ccc
24bb-
24aa-
24gg
24ff
=47
4ee-
24dd
24ee-
24ff
24gg
24aa-
24bb-
24ccc
24ddd
24eee-
24fff
24ggg
24aaa-
=48
2bbb-
4bbb
=49
4cccc
2r
=50
2A-
16G
16A-
8r
=51
4ee-
4dd
4ee-
=52
4ff
4gg
4r
=53
4ff
4ee
4ff
=54
4gg
4aa-
4r
=55
4aa
2bb-
=56
4bb
4.ccc
8bb-
=57
2aa
4bb-
=58
2gg
4aa-
=59
2aa-
4gg
=60
24ff
24bb
24ccc
24gg
24aa-
24ee
24ff
24b
24cc
24g
24a-
24e
24f
24cc
24b-
24a-
24g
24f
=61
24e-
24b-
24a
24a-
24g
24f
24e-
24ee-
24dd
24cc
24b-
24a-
24g
24b-
24dd
24ee-
24gg
24bb-
=62
4.bb-
8bb-
8bb-
8bb-
=63
2.bb-
=64
4e-
8r
8ee-
8ee-
8ee-
=65
2.ee-
=66
4A-
8r
8cc-
8cc-
8cc-
=67
4b-
4r
8d
8r
=68
4e-
4d
4e-
=69
2.f
=70
4e-
4d
4e-
=71
2.f
=72
4e-
4e-
4e-
=73
2.e-
==
*-
